vs/base/browser/ui/findinput/whole-word-dark.svg

<svg xmlns="http://www.w3.org/2000/svg" width="16" height="16"><style type="text/css">.st0{opacity:0;fill:#262626;} .st1{fill:#262626;} .st2{fill:#C5C5C5;}</style><g id="outline"><rect class="st0" width="16" height="16"/><path class="st1" d="M16 4.022v-3.022h-16.014v3.022h3.046l-3.043 7.945h-.004v.01l.015 1.023h-.014v1.991h16.014v-3.023h-1v-7.946h1zm-5.914 5.301c0 .233-.023.441-.066.595-.047.164-.099.247-.127.284l-.078.069-.151.026-.115-.017-.139-.137c-.031-.078-.112-.332-.112-.566 0-.254.091-.561.126-.656l.069-.141.109-.082.178-.027c.077 0 .117.014.177.056l.087.179.051.237-.009.18zm-3.695-5.301v2.893l-1.116-2.893h1.116zm-3.026 7.02h1.573l.351.926h-2.254l.33-.926zm8.635-4.354c-.206-.2-.431-.38-.695-.512-.396-.198-.853-.298-1.355-.298-.215 0-.423.02-.621.058v-1.914h2.671v2.666z"/></g><g id="icon_x5F_bg"><rect x="13" y="4" class="st2" width="1" height="8"/><path class="st2" d="M11.225 8.387c-.078-.299-.199-.562-.36-.786s-.365-.401-.609-.53-.534-.193-.866-.193c-.198 0-.38.024-.547.073-.165.049-.316.117-.453.205-.136.088-.257.194-.365.318l-.179.258v-3.154h-.893v7.422h.893v-.575l.126.175c.087.102.189.19.304.269.117.078.249.14.398.186.149.046.314.068.498.068.353 0 .666-.071.937-.212.272-.143.499-.338.682-.586.183-.25.321-.543.414-.879.093-.338.14-.703.14-1.097-.001-.342-.04-.663-.12-.962zm-1.479-.607c.151.071.282.176.39.314.109.14.194.313.255.517.051.174.082.371.089.587l-.007.125c0 .327-.033.62-.1.869-.067.246-.161.453-.278.614-.117.162-.26.285-.421.366-.322.162-.76.166-1.069.015-.153-.075-.286-.175-.393-.296-.085-.096-.156-.216-.218-.367 0 0-.179-.447-.179-.947 0-.5.179-1.002.179-1.002.062-.177.136-.318.224-.43.114-.143.256-.259.424-.345.168-.086.365-.129.587-.129.19 0 .364.037.517.109z"/><rect x=".987" y="2" class="st2" width="14.013" height="1.023"/><rect x=".987" y="12.968" class="st2" width="14.013" height="1.023"/><path class="st2" d="M1.991 12.031l.728-2.031h2.219l.778 2.031h1.082l-2.485-7.158h-.941l-2.441 7.086-.025.072h1.085zm1.827-5.609h.022l.914 2.753h-1.841l.905-2.753z"/></g></svg>

<svg width="16" height="16" viewBox="0 0 16 16" fill="none" xmlns="http://www.w3.org/2000/svg">
<path d="M14 4H13V12H14V4Z" fill="#C5C5C5"/>
<path d="M11.272 8.387C11.194 8.088 11.073 7.825 10.912 7.601C10.751 7.377 10.547 7.2 10.303 7.071C10.059 6.942 9.769 6.878 9.437 6.878C9.239 6.878 9.057 6.902 8.89 6.951C8.725 7 8.574 7.068 8.437 7.156C8.301 7.244 8.18 7.35 8.072 7.474L7.893 7.732V4.578H7V12H7.893V11.425L8.019 11.6C8.106 11.702 8.208 11.79 8.323 11.869C8.44 11.947 8.572 12.009 8.721 12.055C8.87 12.101 9.035 12.123 9.219 12.123C9.572 12.123 9.885 12.052 10.156 11.911C10.428 11.768 10.655 11.573 10.838 11.325C11.021 11.075 11.159 10.782 11.252 10.446C11.345 10.108 11.392 9.743 11.392 9.349C11.391 9.007 11.352 8.686 11.272 8.387V8.387ZM9.793 7.78C9.944 7.851 10.075 7.956 10.183 8.094C10.292 8.234 10.377 8.407 10.438 8.611C10.489 8.785 10.52 8.982 10.527 9.198L10.52 9.323C10.52 9.65 10.487 9.943 10.42 10.192C10.353 10.438 10.259 10.645 10.142 10.806C10.025 10.968 9.882 11.091 9.721 11.172C9.399 11.334 8.961 11.338 8.652 11.187C8.499 11.112 8.366 11.012 8.259 10.891C8.174 10.795 8.103 10.675 8.041 10.524C8.041 10.524 7.862 10.077 7.862 9.577C7.862 9.077 8.041 8.575 8.041 8.575C8.103 8.398 8.177 8.257 8.265 8.145C8.379 8.002 8.521 7.886 8.689 7.8C8.857 7.714 9.054 7.671 9.276 7.671C9.466 7.671 9.64 7.708 9.793 7.78V7.78Z" fill="#C5C5C5"/>
<path d="M15 2H1V3H15V2Z" fill="#C5C5C5"/>
<path d="M15 13H1V14H15V13Z" fill="#C5C5C5"/>
<path d="M2.085 12.031L2.813 10H5.032L5.81 12.031H6.892L4.407 4.87305H3.466L1.025 11.959L1 12.031H2.085V12.031ZM3.912 6.42205H3.934L4.848 9.17505H3.007L3.912 6.42205V6.42205Z" fill="#C5C5C5"/>
</svg>
